X: 12
T: Pollonesse #12
M: 3/4
L: 1/16
K: D
Q:120
D2F2 A2d2 f2a2|a2f2 g2e2 f2d2|D2F2 A2d2 f2a2| a2gf e4A4:|
f2ef g2f2 e2f2|c2d2 efed c2A2|d4g2e2 f2d2|fedc d4D4:|

